public/payments/common/astropay.svg

<svg width="85" height="26" viewBox="0 0 85 26" fill="none" xmlns="http://www.w3.org/2000/svg">
<path d="M6.04528 2.72365L0.533325 18.9002H3.79999L5.36473 14.1425H9.8553L11.4886 18.9002H14.8228L9.24335 2.72365H6.04528ZM9.03973 11.5592H6.18139L7.33779 7.95666C7.4053 7.68473 7.4739 7.48133 7.54141 7.2094C7.61001 7.48133 7.67753 7.68583 7.81364 7.95776L9.03864 11.5592H9.03973ZM20.2662 11.5592C18.7689 10.9468 18.6328 10.6749 18.6328 10.267C18.6328 9.72312 19.1087 9.38375 19.7892 9.38375C20.4698 9.38375 21.0828 9.58824 21.6948 9.92761L22.3067 10.3355L23.1234 7.75217L22.7837 7.48024C21.888 6.92525 20.841 6.66396 19.7892 6.73298C17.2717 6.73298 15.5023 8.29603 15.5023 10.4715C15.5023 12.4424 17.2717 13.5301 18.7689 14.074C20.2662 14.6179 20.4023 15.0258 20.4023 15.5011C20.4023 16.3854 19.4495 16.5214 18.9051 16.5214C18.0884 16.4528 17.2717 16.2494 16.5912 15.8415L15.9792 15.5011L15.1625 18.1519L15.5709 18.3563C16.5912 18.9002 17.7487 19.2396 18.9051 19.1721C21.6273 19.1721 23.5328 17.608 23.5328 15.2977C23.4642 13.0548 21.6273 12.1031 20.2662 11.5592ZM28.3631 4.21817L25.2326 5.16993V7.00491H23.5993V9.65568H25.3012V14.9572C25.2326 16.1135 25.5048 17.2686 26.1854 18.2204C26.8659 18.9002 27.7512 19.3081 28.7029 19.2396C29.3834 19.2396 29.9965 19.1711 30.6084 18.9676L31.0168 18.8317L30.8807 16.1809L30.2001 16.3843C29.8604 16.4528 29.5881 16.5203 29.2473 16.5203C28.9076 16.5203 28.3631 16.5203 28.3631 15.0258V9.65568H31.1529V7.00491H28.3631V4.21817ZM38.7054 6.86894L38.161 6.80151C37.9573 6.80151 37.8212 6.73298 37.6165 6.73298C36.6648 6.73298 35.711 7.14087 35.0315 7.8207V6.93747H32.1057V7.6173C32.1732 8.50052 32.1732 9.58824 32.1732 10.9479V18.9676H35.3037V12.6469C35.3037 12.375 35.3037 12.1031 35.3712 11.8311C35.5759 10.6074 36.3926 9.79165 37.4129 9.79165H37.9573L38.6379 9.92761L38.7054 6.86894ZM44.421 6.73298C40.9507 6.73298 38.5018 9.31631 38.5018 13.0548C38.5018 16.6573 40.8832 19.1721 44.2849 19.1721C47.1432 19.1721 50.2738 17.2012 50.2738 12.8503C50.2052 9.24779 47.8238 6.73298 44.421 6.73298ZM47.0071 12.9188C47.0071 15.0258 45.8507 16.5214 44.3535 16.5214C42.8563 16.5214 41.6999 15.0258 41.6999 12.9863C41.6999 11.6266 42.3118 9.38375 44.4221 9.38375C46.4627 9.38375 47.0071 11.6952 47.0071 12.9188ZM60.4799 4.01368C59.4585 3.06193 57.8938 2.58659 55.8521 2.58659C54.5596 2.58659 53.2671 2.65403 52.0421 2.85852L51.5663 2.99449V18.8991H54.6957V12.9874C55.0366 12.9874 55.3763 13.0548 55.6485 13.0548C57.4855 13.1233 59.3224 12.5109 60.6835 11.2198C61.5677 10.2681 62.0447 8.90842 62.0447 7.6173C62.0447 6.25765 61.5002 4.96653 60.4799 4.01477V4.01368ZM58.9141 7.68473C58.9141 9.92761 56.941 10.267 55.716 10.267C55.3763 10.267 55.0366 10.267 54.6957 10.1995V5.37333C55.1041 5.3048 55.5124 5.3048 55.9207 5.3048C57.2819 5.37333 58.9141 5.78123 58.9141 7.68473ZM71.5703 15.773V11.7637C71.5703 8.56905 69.8694 6.80151 66.8761 6.80151C65.5149 6.80151 64.1538 7.14087 62.9974 7.8207L62.5891 8.09263L63.4058 10.6074L64.0863 10.1321C64.8344 9.65568 65.7197 9.38375 66.6038 9.45228C67.0797 9.38375 67.6241 9.58824 68.0325 9.92761C68.3047 10.1995 68.4408 10.6074 68.5083 11.0153C66.0583 11.0839 64.2899 11.6952 63.2011 12.7829C62.453 13.5301 62.0447 14.5504 62.0447 15.6371C62.0447 17.6765 63.678 19.3081 65.6511 19.3081H65.9233C66.9436 19.3081 68.0325 18.9676 68.8491 18.3563L68.9166 19.0362H71.9111L71.8425 18.3563C71.6579 17.5077 71.5667 16.6415 71.5703 15.773ZM66.3316 16.5888C65.7186 16.6573 65.1741 16.1809 65.1066 15.5696V15.2977C65.1066 14.8898 65.2427 14.5504 65.5149 14.2785C65.8547 13.938 66.6713 13.5301 68.5094 13.4627V14.7538C68.5094 14.8898 68.5094 15.0258 68.4408 15.2302C68.1 16.046 67.2833 16.5888 66.3316 16.5888ZM80.2117 7.00491L77.9664 13.7346C77.8814 13.9036 77.8349 14.0894 77.8303 14.2785C77.7628 14.1425 77.6942 13.938 77.6267 13.8021L75.1767 7.07344H71.775L76.0608 17.8125C76.1294 17.881 76.1294 17.9485 76.1294 18.0844C76.1294 18.1529 76.0608 18.2204 76.0608 18.2889C75.7211 19.0362 75.2442 19.716 74.5647 20.2599C74.0878 20.6678 73.6119 20.9397 73.0675 21.0756L72.523 21.2791L73.3397 23.9298L73.8841 23.8624C74.9044 23.6579 75.7897 23.1826 76.6064 22.5027C78.1025 21.1431 79.1228 19.0362 80.4839 15.5011L83.5459 6.93747L80.2117 7.00491Z" fill="white"/>
<path d="M12.032 7.2094C14.0737 5.16993 17.4765 3.94624 21.219 3.94624C22.6476 3.94624 24.0762 4.15073 25.4373 4.4901H25.5734L27.9548 3.74284L26.866 3.33495C24.6207 2.5866 22.3068 2.17979 19.994 2.17979C16.7711 2.11195 13.5921 2.9352 10.8081 4.55863L10.5359 4.6946L11.5562 7.6173L12.0331 7.2094H12.032Z" fill="#FF0000"/>
</svg>

<svg xmlns="http://www.w3.org/2000/svg" width="85" height="26" fill="none"><path fill="#fff" d="M6.05 2.72.53 18.9H3.8l1.56-4.76h4.5l1.63 4.76h3.33L9.24 2.72h-3.2Zm2.99 8.84H6.18l1.16-3.6.2-.75c.07.27.14.48.27.75l1.23 3.6Zm11.23 0c-1.5-.61-1.64-.89-1.64-1.3 0-.54.48-.88 1.16-.88.68 0 1.3.2 1.9.55l.62.4.81-2.58-.34-.27a5.06 5.06 0 0 0-3-.75c-2.5 0-4.28 1.57-4.28 3.74 0 1.97 1.77 3.06 3.27 3.6 1.5.55 1.63.96 1.63 1.43 0 .89-.95 1.02-1.5 1.02a5.4 5.4 0 0 1-2.3-.68l-.62-.34-.82 2.65.41.2c1.02.55 2.18.89 3.34.82 2.72 0 4.62-1.56 4.62-3.87-.07-2.25-1.9-3.2-3.26-3.74Zm8.1-7.34-3.14.95V7H23.6v2.66h1.7v5.3c-.07 1.15.2 2.3.89 3.26a3.24 3.24 0 0 0 2.51 1.02c.68 0 1.3-.07 1.9-.27l.42-.14-.14-2.65-.68.2c-.34.07-.61.14-.95.14-.34 0-.89 0-.89-1.5V9.67h2.8V7h-2.8V4.22ZM38.7 6.87l-.55-.07c-.2 0-.34-.07-.54-.07-.96 0-1.9.41-2.59 1.1v-.9h-2.92v.69c.06.88.06 1.97.06 3.33v8.02h3.13v-6.32c0-.28 0-.55.07-.82.2-1.22 1.02-2.04 2.04-2.04h.55l.68.14.07-3.06Zm5.71-.14c-3.47 0-5.92 2.59-5.92 6.32 0 3.6 2.38 6.12 5.78 6.12 2.86 0 6-1.97 6-6.32-.07-3.6-2.46-6.12-5.86-6.12Zm2.59 6.19c0 2.1-1.16 3.6-2.66 3.6-1.5 0-2.65-1.5-2.65-3.53 0-1.36.61-3.6 2.72-3.6 2.04 0 2.59 2.3 2.59 3.53Zm13.47-8.9c-1.02-.96-2.59-1.43-4.63-1.43-1.29 0-2.58.06-3.8.27l-.48.13v15.9h3.13V13c.34 0 .68.06.95.06a6.92 6.92 0 0 0 5.03-1.83 5.4 5.4 0 0 0 1.36-3.6c0-1.36-.54-2.65-1.56-3.6Zm-1.57 3.66c0 2.25-1.97 2.59-3.2 2.59-.33 0-.67 0-1.01-.07V5.37c.4-.07.81-.07 1.22-.07 1.36.07 3 .48 3 2.38Zm12.66 8.1v-4.02c0-3.2-1.7-4.96-4.7-4.96-1.36 0-2.72.34-3.87 1.02l-.41.27.82 2.52.68-.48a4.14 4.14 0 0 1 2.51-.68c.48-.07 1.02.14 1.43.48.27.27.41.68.48 1.09-2.45.06-4.22.68-5.3 1.76a4 4 0 0 0-1.17 2.86 3.64 3.64 0 0 0 3.61 3.67h.27c1.02 0 2.11-.34 2.93-.95l.07.68h3l-.08-.68c-.18-.85-.27-1.72-.27-2.59Zm-5.24.8c-.61.08-1.16-.4-1.22-1.01v-.27c0-.41.13-.75.4-1.02.34-.34 1.16-.75 3-.82v1.3c0 .13 0 .27-.07.47a2.25 2.25 0 0 1-2.1 1.36ZM80.21 7l-2.24 6.73c-.09.17-.14.36-.14.55-.07-.14-.14-.34-.2-.48l-2.45-6.73h-3.4l4.28 10.74c.07.07.07.14.07.27 0 .07-.07.14-.07.2a5.26 5.26 0 0 1-1.5 1.98c-.47.4-.95.68-1.5.82l-.54.2.82 2.65.54-.07c1.02-.2 1.91-.68 2.73-1.36 1.5-1.36 2.51-3.46 3.87-7l3.07-8.56L80.2 7Z"/><path fill="red" d="M12.03 7.2c2.04-2.03 5.45-3.25 9.19-3.25 1.43 0 2.86.2 4.22.54h.13l2.38-.75-1.08-.4a21.74 21.74 0 0 0-6.88-1.16 17.5 17.5 0 0 0-9.18 2.38l-.27.13 1.02 2.93.47-.41Z"/></svg>
